X: 1
T: Little Stack Of Wheat, The
M: 4/4
L: 1/8
R: hornpipe
K: Gmaj
GA|:BGAG EGDE|G2GF GBAG|EAAB cBAG| EGA2 A2AB|
ceec BddB|ABAG EGDG| BGAG EGDE|1 G2GF G2GA:|2 G2GF GABc||
|:d2ec dBGA|B2e2 e2ef|gfed BGBd|g2(3fga g2ef|
g2gf efed|BGAG EGDG|BGAG EGDE|1 G2GF GABc:|2 G2GF G4||
